gama.ui.shared/icons_svg/dark/layer/layer.graphics.svg

<svg height="24.75" viewBox="-778.358 -3651.197 24.75 24.75" width="24.75" xmlns="http://www.w3.org/2000/svg"><g fill="none"><path d="m-774.1427-3650.8223h16.32c2.12075 0 3.84 1.7193 3.84 3.84v16.32c0 2.1208-1.71925 3.84-3.84 3.84h-16.32c-2.1208 0-3.84-1.7192-3.84-3.84v-16.32c0-2.1207 1.7192-3.84 3.84-3.84z" fill="#4288c4"/><path d="m-762.3464-3643.8613v7.4758l1.0909 1.099 1.09095-1.099v-7.4758zm0-.7273h2.18185v-1.4438h-2.18185zm2.9091 1.4546v6.8984c0 .0959-.0379.188-.1055.2562l-1.4546 1.4654c-.1422.143-.3739.143-.5161 0l-1.4546-1.4654c-.0676-.0682-.10555-.1603-.10555-.2562v-1.8074h-.36365c-.6025 0-1.0909-.4885-1.0909-1.091v-2.182c0-.6023.4884-1.0908 1.0909-1.0908h.36365v-.7272h-7.27275v5.4545c0 .2009-.1628.3635-.3636.3635h-.3637c-1.205 0-2.1818.977-2.1818 2.182s.9768 2.182 2.1818 2.182h12.3637v-10.182zm0-.7273h1.0909c.2009 0 .3637.1628.3637.3636v10.9091c0 .2009-.1628.3636-.3637.3636h-12.7273c-1.6066 0-2.9091-1.3024-2.9091-2.909v-8.3637c0-1.8073 1.4653-3.2727 3.2728-3.2727.2008 0 .3636.1628.3636.3636v2.5455h7.27275v-2.5347c0-.201.16285-.3637.36365-.3637h2.9091c.2008 0 .3636.1627.3636.3637zm-3.63635 2.1818h-.36365c-.2008 0-.3636.1628-.3636.3635v2.182c0 .201.1628.3636.3636.3636h.36365zm-10.18185 4.6212c.5331-.6037 1.313-.9847 2.1818-.9847v-7.9744c-1.2335.1764-2.1818 1.2374-2.1818 2.5197zm4.7273-5.3485h2.1818c.6025 0 1.0909.4885 1.0909 1.0908v2.182c0 .6025-.4884 1.091-1.0909 1.091h-2.1818c-.6025 0-1.0909-.4885-1.0909-1.091v-2.182c0-.6023.4884-1.0908 1.0909-1.0908zm0 .7273c-.2008 0-.36365.1628-.36365.3635v2.182c0 .201.16285.3636.36365.3636h2.1818c.20085 0 .36365-.1626.36365-.3636v-2.182c0-.2007-.1628-.3635-.36365-.3635zm-.7273 5.8182c-.2008 0-.3636-.1627-.3636-.3637 0-.2008.1628-.3636.3636-.3636h5.0909c.2009 0 .3637.1628.3637.3636 0 .201-.1628.3637-.3637.3637zm0 1.4546c-.2008 0-.3636-.1628-.3636-.3637 0-.2006.1628-.3636.3636-.3636h5.8182c.20085 0 .36365.163.36365.3636 0 .2009-.1628.3637-.36365.3637z" fill="#fff"/></g></svg>

<?xml version="1.0" encoding="UTF-8" standalone="no"?>
<!DOCTYPE svg PUBLIC "-//W3C//DTD SVG 1.1//EN" "http://www.w3.org/Graphics/SVG/1.1/DTD/svg11.dtd">
<svg xmlns="http://www.w3.org/2000/svg" xmlns:xl="http://www.w3.org/1999/xlink" version="1.1" xmlns:dc="http://purl.org/dc/elements/1.1/" viewBox="-778.3577 -3651.1973 24.75 24.75" width="24.75" height="24.75">
  <defs/>
  <g id="SOURCES" stroke-opacity="1" fill="none" stroke="none" fill-opacity="1" stroke-dasharray="none">
    <title>SOURCES</title>
    <g id="SOURCES_Dark">
      <title>Dark</title>
      <g id="Graphic_11574">
        <title>views/view.other</title>
        <path d="M -774.1427 -3650.8223 L -757.8227 -3650.8223 C -755.70195 -3650.8223 -753.9827 -3649.103 -753.9827 -3646.9823 L -753.9827 -3630.6623 C -753.9827 -3628.5415 -755.70195 -3626.8223 -757.8227 -3626.8223 L -774.1427 -3626.8223 C -776.2635 -3626.8223 -777.9827 -3628.5415 -777.9827 -3630.6623 L -777.9827 -3646.9823 C -777.9827 -3649.103 -776.2635 -3650.8223 -774.1427 -3650.8223 Z" fill="#4288c4"/>
      </g>
      <g id="Graphic_11573">
        <path d="M -762.3464 -3643.8613 L -762.3464 -3636.3855 L -761.2555 -3635.2865 L -760.16455 -3636.3855 L -760.16455 -3643.8613 Z M -762.3464 -3644.5886 L -760.16455 -3644.5886 L -760.16455 -3646.0324 L -762.3464 -3646.0324 Z M -759.4373 -3643.134 L -759.4373 -3636.2356 C -759.4373 -3636.1397 -759.4752 -3636.0476 -759.5428 -3635.9794 L -760.9974 -3634.514 C -761.1396 -3634.371 -761.3713 -3634.371 -761.5135 -3634.514 L -762.9681 -3635.9794 C -763.0357 -3636.0476 -763.07365 -3636.1397 -763.07365 -3636.2356 L -763.07365 -3638.043 L -763.4373 -3638.043 C -764.0398 -3638.043 -764.5282 -3638.5315 -764.5282 -3639.134 L -764.5282 -3641.316 C -764.5282 -3641.9183 -764.0398 -3642.4068 -763.4373 -3642.4068 L -763.07365 -3642.4068 L -763.07365 -3643.134 L -770.3464 -3643.134 L -770.3464 -3637.6795 C -770.3464 -3637.4786 -770.5092 -3637.316 -770.71 -3637.316 L -771.0737 -3637.316 C -772.2787 -3637.316 -773.2555 -3636.339 -773.2555 -3635.134 C -773.2555 -3633.929 -772.2787 -3632.952 -771.0737 -3632.952 L -758.71 -3632.952 L -758.71 -3643.134 Z M -759.4373 -3643.8613 L -758.3464 -3643.8613 C -758.1455 -3643.8613 -757.9827 -3643.6985 -757.9827 -3643.4977 L -757.9827 -3632.5886 C -757.9827 -3632.3877 -758.1455 -3632.225 -758.3464 -3632.225 L -771.0737 -3632.225 C -772.6803 -3632.225 -773.9828 -3633.5274 -773.9828 -3635.134 L -773.9828 -3643.4977 C -773.9828 -3645.305 -772.5175 -3646.7704 -770.71 -3646.7704 C -770.5092 -3646.7704 -770.3464 -3646.6076 -770.3464 -3646.4068 L -770.3464 -3643.8613 L -763.07365 -3643.8613 L -763.07365 -3646.396 C -763.07365 -3646.597 -762.9108 -3646.7597 -762.71 -3646.7597 L -759.8009 -3646.7597 C -759.6001 -3646.7597 -759.4373 -3646.597 -759.4373 -3646.396 Z M -763.07365 -3641.6795 L -763.4373 -3641.6795 C -763.6381 -3641.6795 -763.8009 -3641.5167 -763.8009 -3641.316 L -763.8009 -3639.134 C -763.8009 -3638.933 -763.6381 -3638.7704 -763.4373 -3638.7704 L -763.07365 -3638.7704 Z M -773.2555 -3637.0583 C -772.7224 -3637.662 -771.9425 -3638.043 -771.0737 -3638.043 L -771.0737 -3646.0174 C -772.3072 -3645.841 -773.2555 -3644.78 -773.2555 -3643.4977 L -773.2555 -3637.0583 Z M -768.5282 -3642.4068 L -766.3464 -3642.4068 C -765.7439 -3642.4068 -765.2555 -3641.9183 -765.2555 -3641.316 L -765.2555 -3639.134 C -765.2555 -3638.5315 -765.7439 -3638.043 -766.3464 -3638.043 L -768.5282 -3638.043 C -769.1307 -3638.043 -769.6191 -3638.5315 -769.6191 -3639.134 L -769.6191 -3641.316 C -769.6191 -3641.9183 -769.1307 -3642.4068 -768.5282 -3642.4068 Z M -768.5282 -3641.6795 C -768.729 -3641.6795 -768.89185 -3641.5167 -768.89185 -3641.316 L -768.89185 -3639.134 C -768.89185 -3638.933 -768.729 -3638.7704 -768.5282 -3638.7704 L -766.3464 -3638.7704 C -766.14555 -3638.7704 -765.98275 -3638.933 -765.98275 -3639.134 L -765.98275 -3641.316 C -765.98275 -3641.5167 -766.14555 -3641.6795 -766.3464 -3641.6795 Z M -769.2555 -3635.8613 C -769.4563 -3635.8613 -769.6191 -3636.024 -769.6191 -3636.225 C -769.6191 -3636.4258 -769.4563 -3636.5886 -769.2555 -3636.5886 L -764.1646 -3636.5886 C -763.9637 -3636.5886 -763.8009 -3636.4258 -763.8009 -3636.225 C -763.8009 -3636.024 -763.9637 -3635.8613 -764.1646 -3635.8613 Z M -769.2555 -3634.4067 C -769.4563 -3634.4067 -769.6191 -3634.5695 -769.6191 -3634.7704 C -769.6191 -3634.971 -769.4563 -3635.134 -769.2555 -3635.134 L -763.4373 -3635.134 C -763.23645 -3635.134 -763.07365 -3634.971 -763.07365 -3634.7704 C -763.07365 -3634.5695 -763.23645 -3634.4067 -763.4373 -3634.4067 Z" fill="white"/>
      </g>
    </g>
  </g>
</svg>
